X:80
T:Trotto
C:trad.
Z:S. Piron
M:6/8
L:1/8
Q:1/4=170
K:G
A2 A eAe|e2dcBc|AGA BAB|G3A2B|1cBAB2G|B3B3:|2d2ed2c|BABGA2|
|d/2c/2Bcd2e|d/2c/2Bc AGA|d/2c/2Bcd2e|d/2c/2Bc AGA|d/2c/2Bc d2e|
d/2c/2Bc AGA|a2gf3|a/2g/2fg e2A|eAee3|a2 g/2f/2e2f/2g/2|
a2g/2f/2e3|a/2g/2fge2A|eAee3||
